src/icons/solid/view-list.svg

<svg width="20" height="20" viewBox="0 0 20 20" fill="none" xmlns="http://www.w3.org/2000/svg">

<path fill-rule="evenodd" clip-rule="evenodd" d="M3 4C3 3.44772 3.44772 3 4 3H16C16.5523 3 17 3.44772 17 4C17 4.55228 16.5523 5 16 5H4C3.44772 5 3 4.55228 3 4ZM3 8C3 7.44772 3.44772 7 4 7H16C16.5523 7 17 7.44772 17 8C17 8.55228 16.5523 9 16 9H4C3.44772 9 3 8.55228 3 8ZM3 12C3 11.4477 3.44772 11 4 11H16C16.5523 11 17 11.4477 17 12C17 12.5523 16.5523 13 16 13H4C3.44772 13 3 12.5523 3 12ZM3 16C3 15.4477 3.44772 15 4 15H16C16.5523 15 17 15.4477 17 16C17 16.5523 16.5523 17 16 17H4C3.44772 17 3 16.5523 3 16Z" fill="#4A5568"/>
</svg>

<svg xmlns="http://www.w3.org/2000/svg" viewBox="0 0 20 20" fill="currentColor">
  <path fill-rule="evenodd" d="M3 4a1 1 0 011-1h12a1 1 0 110 2H4a1 1 0 01-1-1zm0 4a1 1 0 011-1h12a1 1 0 110 2H4a1 1 0 01-1-1zm0 4a1 1 0 011-1h12a1 1 0 110 2H4a1 1 0 01-1-1zm0 4a1 1 0 011-1h12a1 1 0 110 2H4a1 1 0 01-1-1z" clip-rule="evenodd"/>
</svg>
